X:5
T:Winter Waltz
C:Tom Graves, March 1996
M:3/4
L:1/4
Q:1/4=150
K:EMin % 1 sharp
B2 EFGA|B2 EFGA|B2 g2 f2|e4 z e|B2 EFGA|B2 EFGA|B2 A2 G2|F4 ef|
B2 EFGA|B2 EFGA|B2 g2 f2|e3 def|g3 f e2|d2 B2 GA|B2 G2 F2|E4 z2 :|
g2 B2 g2|e2 B2 G2|A3 B c2|B4 z B|g2 B2 g2|e2 B2 G2|A2 B2 G2|F4 ef|
g2 B2 g2|e2 B2 G2|A3 B c2|B3 GAB|c3 B A2|G2 F2 GA|B2 G2 F2|E4 z2 :|
